X:271
T:All in a Garden Green
M:C
L:1/8
K:G
d4 d2 d2 | B2 -Bc d2 d2 | e2 d2 c2 B2 | A6 B2 | 
c3 d ef g2 | G2 -GA Bc d2 | c2 B2 AGAB | G6 :| 
d2 dd d2 d2 | e2 f2 g4 | B2 BB B2 G2 | A2 B2 c4 | 
B3 A GA B2 | c3 B AB c2 | d3 c Bc d2 | e3 d cdBc | 
A2 G2 G2 F2 | G6 :| 

